X:4
T:Knocking on Heavens' door
L:1/8
M:6/8
K:Em
E2D E2 G- | G6 | B3-B2 c/B/ |  A2 G ^F2 D | F3-F2 G/F/ | E6 | 
"2:15" z3 B2d | e2g- g3- |g3- g2 a/g/ | f2d  e2 d | B2 A  G2 E | D2 E G3- | G2 B A2 G- | 
G2 D E2 G | A2 B c2 A | B6 | d6 | ed2- d2 e | d2 B A2 G | F2D E2F | 
GFG AGA | BAB cBc | dcd ede | g3-g2 g | a2 g g2 a | b3b3 |
 (3c'2c'2c'2 | b2 a e2 g | f2 d e2 A | B2 c B2 G | A2 D F2 A | G2 D E2 G- | G3- G2 E |
 D2 B, A,2B, | D2E G2 A | B2 G E2 G -| G3-G2 c | B2 G E2 G- | G3 DEF | G6 |] 